gloss/img/phone.svg

<svg width="24" height="24" viewBox="0 0 24 24" fill="none" xmlns="http://www.w3.org/2000/svg">
<path d="M9.65363 6.2335C9.43917 5.51807 9.2917 4.78424 9.21313 4.0415C9.13463 3.301 8.48813 2.75 7.74363 2.75H4.28963C3.40113 2.75 2.71713 3.5175 2.79513 4.402C3.58263 13.3165 10.6836 20.417 19.5981 21.205C20.4831 21.283 21.2501 20.6015 21.2501 19.713V16.633C21.2501 15.509 20.6991 14.865 19.9586 14.7865C19.2159 14.7081 18.4821 14.5608 17.7666 14.3465C17.3424 14.2207 16.8921 14.2121 16.4634 14.3215C16.0347 14.4309 15.6436 14.6543 15.3316 14.968L13.8531 16.4465C11.1868 15.002 8.99813 12.8133 7.55363 10.147L9.03213 8.6685C9.3459 8.35653 9.56939 7.96547 9.67889 7.53677C9.7884 7.10807 9.77934 6.65773 9.65363 6.2335Z" stroke="white" stroke-opacity="0.5" stroke-linecap="round" stroke-linejoin="round"/>
</svg>

<svg xmlns="http://www.w3.org/2000/svg" width="24" height="24" fill="none"><path stroke="#fff" stroke-linecap="round" stroke-linejoin="round" stroke-opacity=".5" d="M9.654 6.234a12 12 0 0 1-.44-2.192c-.08-.741-.726-1.292-1.47-1.292H4.29c-.889 0-1.573.768-1.495 1.652.788 8.915 7.889 16.015 16.803 16.803a1.506 1.506 0 0 0 1.652-1.492v-3.08c0-1.124-.55-1.768-1.291-1.846a12 12 0 0 1-2.192-.44 2.45 2.45 0 0 0-2.435.621l-1.479 1.479a15.64 15.64 0 0 1-6.3-6.3l1.48-1.479a2.45 2.45 0 0 0 .62-2.434"/></svg>
